X:1
T: The Amorous Goddess
N:
C:Samuel Howard
S:aka "Delia"
A:
O:
R:
M:4/4
K:D
I:speed 200
%W: A
% voice 1 (1 lines, 25 notes)
K:D
M:4/4
L:1/16
A4 |d4 d4/3 e4/3 f4/3 |e4 a2 c2 d4 g e3 |d4 c4 d2 A2 B2 =c2 |B2 ^c2 d4 e4/3 f4/3 |g4/3 f4 e8 |
%W:
% voice 1 (1 lines, 22 notes)
d4 d4/3 e4/3 f4/3 |e4 a2 c2 d4 g e3 |d4 c4 d2 A2 B2 =c2 |B4 g2 e2 d4 c4 |d8
%W: B
% voice 1 (1 lines, 21 notes)
c4 d4/3 |e4/3 f4/3 e4 d2 c2 |d4 c2 B2 c8 |e2 c2 B2 A2 F2 ^G2 A4 |d4 c4 B8 |
%W: B
% voice 1 (1 lines, 21 notes)
e4 d4/3 e4/3 f4/3 |e4 d2 c2 d4 b2 d2 |c8 e2 c2 B2 A2 |F4 d2 B2 A4 ^G4 |A8
%W: C
% voice 1 (1 lines, 24 notes)
d4 d4/3 |e4/3 f4/3 e4 a2 c2 |d4 g e3 d4 c4 |d2 A2 B2 =c2 B2 ^c2 d4 |e4/3 f4/3 g4/3 f4 |e8
%W:
% voice 1 (1 lines, 24 notes)
d4 d4/3 |e4/3 f4/3 e4 a2 c2 |d4 g e3 d4 c4 |d2 A2 B2 =c2 B4 g2 e2 |d4 c4/3 B4/3 c4/3 |d4 ||
%W:
% voice 1 (1 lines, 0 notes)
